gy/si-glyph-anchor.svg

<svg viewBox="0 0 17 16" xmlns="http://www.w3.org/2000/svg" class="si-glyph si-glyph-anchor" height="1em" width="1em">
  <path d="m15.469 6.09-2.426 1.447 1.331.348c-.009 2.278-1.944 4.213-4.416 4.625V5.917h1.984v-.834H9.958V3.637c.568-.352.96-.967.96-1.693 0-1.109-.883-1.92-1.971-1.92S7.01.871 7.01 1.981c0 .751.396 1.355.989 1.69v1.412H6.015v.834H8v6.595c-2.472-.409-4.306-2.352-4.31-4.639l1.3-.334L2.611 6.08 1.054 8.55l1.337-.344c.171 2.76 2.388 5.024 5.304 5.563.857.248.934.845.934.845l.402 1.327.413-1.318s.171-.648.933-.854c2.906-.539 5.118-2.797 5.296-5.548l1.299.338-1.503-2.469ZM8.953 1.001a.96.96 0 0 1 .957.964.96.96 0 0 1-.957.963.96.96 0 0 1-.958-.963.96.96 0 0 1 .958-.964Z" fill="#434343" class="si-glyph-fill" fill-rule="evenodd"/>
</svg>

<svg viewBox="0 0 17 16" version="1.1" xmlns="http://www.w3.org/2000/svg" class="si-glyph si-glyph-anchor" height="1em" width="1em">
  <g stroke="none" stroke-width="1" fill="none" fill-rule="evenodd">
    <path d="M15.469,6.09 L13.043,7.537 L14.374,7.885 C14.365,10.163 12.43,12.098 9.958,12.51 L9.958,5.917 L11.942,5.917 L11.942,5.083 L9.958,5.083 L9.958,3.637 C10.526,3.285 10.918,2.67 10.918,1.944 C10.918,0.835 10.035,0.024 8.947,0.024 C7.859,0.024 7.01,0.871 7.01,1.981 C7.01,2.732 7.406,3.336 7.999,3.671 L7.999,5.083 L6.015,5.083 L6.015,5.917 L8,5.917 L8,12.512 C5.528,12.103 3.694,10.16 3.69,7.873 L4.99,7.539 L2.611,6.08 L1.054,8.55 L2.391,8.206 C2.562,10.966 4.779,13.23 7.695,13.769 C8.552,14.017 8.629,14.614 8.629,14.614 L9.031,15.941 L9.444,14.623 C9.444,14.623 9.615,13.975 10.377,13.769 C13.283,13.23 15.495,10.972 15.673,8.221 L16.972,8.559 L15.469,6.09 L15.469,6.09 Z M8.953,1.001 C9.482,1.001 9.91,1.433 9.91,1.965 C9.91,2.497 9.482,2.928 8.953,2.928 C8.423,2.928 7.995,2.497 7.995,1.965 C7.995,1.433 8.423,1.001 8.953,1.001 L8.953,1.001 Z" fill="#434343" class="si-glyph-fill"/>
  </g>
</svg>
